X: 331
T: Bulgar "Liana"
R: bulgar
O:
Q: 1/4=168
B: German Goldenshteyn "Shpilt klezmorimlach klingen zoln di gesalach" New York 2003 v.3 #31
Z: 2012 John Chambers <jc:trillian.mit.edu>
M: 2/4
L: 1/8
K: G
zdga |:\
b4- | b4 | {^c'}d'4- | d'4 |\
b3a | b2c'2 | b3a | b2c'2 |\
ba3- | a4- |
a4- | aabc' | e'4- | e'4- |\
e'4- | e'4 | d'2d'2 | c'2c'2 |\
b2b2 | a3g |
bg3 - | g4- | g4- |[1 gdga :|[2 gz "^>"d2 |:\
g3a | b2b2 | a2a2 | g3f | ad3- | d4- |
d4- | d4 | g3a | b2b2 | a2a2 | g3f | fe3- | e4- | e4- | e4 :|
